src/assets/download.svg

<?xml version="1.0" encoding="UTF-8" standalone="no"?>
<svg
   xmlns:dc="http://purl.org/dc/elements/1.1/"
   xmlns:cc="http://creativecommons.org/ns#"
   xmlns:rdf="http://www.w3.org/1999/02/22-rdf-syntax-ns#"
   xmlns:svg="http://www.w3.org/2000/svg"
   xmlns="http://www.w3.org/2000/svg"
   xmlns:sodipodi="http://sodipodi.sourceforge.net/DTD/sodipodi-0.dtd"
   xmlns:inkscape="http://www.inkscape.org/namespaces/inkscape"
   inkscape:version="1.0 (4035a4fb49, 2020-05-01)"
   sodipodi:docname="download.svg"
   viewBox="0 0 90.708665 90.705526"
   height="23.99917mm"
   width="24mm"
   id="svg919"
   version="1.1">
  <sodipodi:namedview
     inkscape:current-layer="svg919"
     inkscape:window-maximized="1"
     inkscape:window-y="0"
     inkscape:window-x="0"
     inkscape:cy="45.316826"
     inkscape:cx="45.354331"
     inkscape:zoom="13.913155"
     showgrid="false"
     id="namedview861"
     inkscape:window-height="1423"
     inkscape:window-width="2463"
     inkscape:pageshadow="2"
     inkscape:pageopacity="0"
     guidetolerance="10"
     gridtolerance="10"
     objecttolerance="10"
     borderopacity="1"
     bordercolor="#666666"
     pagecolor="#ffffff" />
  <metadata
     id="metadata925">
    <rdf:RDF>
      <cc:Work
         rdf:about="">
        <dc:format>image/svg+xml</dc:format>
        <dc:type
           rdf:resource="http://purl.org/dc/dcmitype/StillImage" />
        <dc:title />
      </cc:Work>
    </rdf:RDF>
  </metadata>
  <defs
     id="defs923" />
  <path
     sodipodi:nodetypes="cssssssscssssssssssccccccccccccccccccccccccc"
     id="path1472"
     d="M 45.155112,1.7346732e-4 C 38.721392,0.01803929 32.45663,1.4175568 26.246635,4.2134132 24.798591,4.8653514 20.56176,7.3114843 19.273146,8.2395587 12.93364,12.805338 8.2185623,18.270176 4.8346973,24.974033 3.5009039,27.616445 2.5677675,30.062389 1.6946955,33.204064 0.24684276,38.414041 -0.25050516,43.246106 0.11561084,48.546145 0.49107583,53.981522 1.9428487,59.597454 4.2264915,64.448031 4.5093612,65.048859 4.8206506,65.710877 4.9182138,65.919061 5.3033666,66.740908 7.789383,70.812106 8.512811,71.805751 14.037066,79.393474 21.303734,84.880036 30.009621,88.036547 31.496962,88.575817 35.149429,89.571076 36.746254,89.87215 40.749922,90.627012 44.539068,90.865644 48.335925,90.601973 60.347551,89.767816 71.39816,84.341193 79.310903,75.391264 83.143956,71.055772 85.949908,66.338105 87.987803,60.802594 88.565458,59.233527 89.591611,55.488155 89.901903,53.816224 91.666394,44.30866 90.542366,35.261076 86.472031,26.208072 85.851031,24.826881 83.378937,20.544831 82.492388,19.314709 76.998951,11.69235 70.235218,6.4072513 61.684865,3.0561143 59.795547,2.3156368 55.299289,1.0447555 53.403447,0.71534701 50.618147,0.23138984 47.871572,-0.00737425 45.155112,1.7346732e-4 Z M 37.080028,18.730406 H 46.176844 55.273655 L 55.361622,28.08589 55.449587,37.441374 61.496221,37.606963 67.542854,37.772556 56.858004,48.452766 46.173039,59.13298 35.42162,48.377757 24.670202,37.622419 30.787208,37.531954 36.904214,37.441374 36.992061,28.08589 Z M 24.485353,63.276207 H 46.176844 67.868446 V 66.256725 68.043401 H 46.176844 24.485353 V 66.256725 Z"
     style="fill:#000000;stroke-width:0.092555" />
</svg>

<svg xmlns="http://www.w3.org/2000/svg" viewBox="0 0 90.709 90.706" height="90.706" width="24mm"><path d="M45.155 0c-6.434.018-12.698 1.418-18.908 4.213-1.448.652-5.685 3.098-6.974 4.027-6.34 4.565-11.054 10.03-14.438 16.734-1.334 2.642-2.267 5.088-3.14 8.23C.247 38.414-.251 43.246.115 48.546c.376 5.436 1.828 11.051 4.111 15.902l.692 1.471c.385.822 2.871 4.893 3.595 5.887 5.524 7.587 12.79 13.074 21.497 16.23 1.487.54 5.14 1.535 6.736 1.836 4.004.755 7.793.994 11.59.73 12.012-.834 23.062-6.26 30.975-15.21 3.833-4.336 6.639-9.054 8.677-14.59.577-1.568 1.604-5.314 1.914-6.986 1.764-9.507.64-18.555-3.43-27.608-.621-1.381-3.093-5.663-3.98-6.893C77 11.692 70.235 6.407 61.685 3.056c-1.89-.74-6.386-2.011-8.282-2.34A47.321 47.321 0 0 0 45.155 0zM37.08 18.73h18.194l.088 9.356.088 9.355 6.046.166 6.047.166-10.685 10.68-10.685 10.68-10.751-10.755L24.67 37.622l6.117-.09 6.117-.09.088-9.356zM24.485 63.276H67.868V68.043H24.485v-1.786z" style="fill:#000;stroke-width:.092555"/></svg>
